X:2
T:Tabanovachko Kolo
R:kolo
O:Serbia
Z:id:hn-kolo-2
M:2/4
L:1/16
Q:1/4=120
K:Edor ^A =G
^ABGB ABGB | ^ABGB AGFE | ^ABcd eBdc | dcB^A B4 | 
^ABGB ABGB | ^ABGB AGFE | FGB2 BGFE | B^AGF E4 :| 
|: FGFG =AGFE | cdcd edcB | ^ABcd cBAG | ^ABGB AGFE | 
   FGFG =AGFE | cdcd edcB | ^ABcd cBAG | B^AGF E4 :| 
|: ^deeB e=dcB | ^ABdc BABE | FGFG B^ABE | FGB^A GFGE | 
   FGFG B^ABE | FGB^A GFGE | FGB2 BGFE | F2FB F4 :| 
|: FGFG B^ABE | FGB^A GFGE | FGFG B^ABE | FGB^A GFGE | 
   FGFG B^ABE | FGB^A GFGE | FGB2 BGFE | F2FB F4 :| 

